X: 7886
T: Con Cassidy's
R: reel
M: 4/4
K: Amixolydian
cAeA c/d/e Ac|BG G/G/G B/A/A Bd|cAeA c/d/e Ag|fd f/g/a gfed:|
c/d/e- ef gfgd|BGBc dfed|c/d/e- ef gfge|f/g/a fd gfed|
c/d/e- ef gfge|dBGB dgfg|agfa gfed|cBgf gfed||

